usr/share/icons/biglinux-icons-material/16/actions/view-financial-account-edit.svg

<svg viewBox="0 0 16 16" xmlns="http://www.w3.org/2000/svg">
  <style type="text/css" id="current-color-scheme">
    .ColorScheme-Text {
      color:#363636;
    }
    .ColorScheme-NegativeText {
      color:#da4453;
    }
  </style>
<path
    d="m3 2v6h-2v1h7v-1h-4v-5h10v4h1v-5h-12zm2 2v1h4v-1h-4zm0 2v1h3v-1h-3zm8 2-4 4v2h2l4-4-2-2zm-0.310547 1.6894531 0.591797 0.5917969-2.96875 3-0.59375-0.59375 2.970703-2.9980469zm-11.689453 0.3105469v4h7v-4h-7zm5 1h1v2h-1v-2zm-4 1h1v1h-1v-1zm2 0h1v1h-1v-1z"
    style="fill:currentColor;fill-opacity:1;stroke:none"
    class="ColorScheme-Text"
    />
<path
    d="m10 4v1h3v-1z"
    style="fill:currentColor;fill-opacity:1;stroke:none"
    class="ColorScheme-NegativeText"
    />
</svg>

<svg xmlns="http://www.w3.org/2000/svg" viewBox="0 0 16 16"><path d="M3 2v6H1v1h7V8H4V3h10v4h1V2H3zm2 2v1h4V4H5zm0 2v1h3V6H5zm8 2-4 4v2h2l4-4-2-2zm-.31 1.69.591.591-2.969 3-.593-.594 2.97-2.998zM1 10v4h7v-4H1zm5 1h1v2H6v-2zm-4 1h1v1H2v-1zm2 0h1v1H4v-1z" style="fill:currentColor;fill-opacity:1;stroke:none;color:#dedede"/><path d="M10 4v1h3V4z" style="fill:currentColor;fill-opacity:1;stroke:none;color:#da4453"/></svg>
